!!!COM: Richard Wagner
!!!CNT: Deutsch
!!!TXO: Deutsch
!!!OTL: Der Tannenbaum
!!!LYR: Scheurlin
!!!OPR: 
!!!OPS: WWV 50 no opus info found
!!!ONM: 
!!!ENC: Ben Fuhrman
!!!YOR: IMSLP, no information given on the edition
!!!YOR: http://imslp.org/wiki/Der_Tannenbaum,_WWV_50_%28Wagner,_Richard%29
!!!ODT: 1838
!!NB: Only vocal melody encoded.
!!NB: First instance of melodic material only encoded.
!!created: 2/9/10 4:58PM
!!proofed and posted: 2/9/10 4:59PM
**kern	**silbe
*clef G2	*
*k[b-e-a-d-g-c-]	*
*M4/4	*
*MM[Moderato]	*
=4	=4
2r	.
4r	.
{4e-	{Der
=5	=5
4.f-	Tan-
8f-	-nen-
4f-	-baum
4f-	steht
=6	=6
2f-	schwei-
4cc-	-gend,
4r	.
=7	=7
2b-	ein-
4g-	-sam
4r	.
=8	=8
4r	.
4f	auf
4.b-	grau-
8b-	-er
=9	=9
2b-}	Ho2h';}
4r	.
8r	.
{8b-	{der
=10	=10
4.b-	Kna-
8b-	-be
4ee-	schau-
8ddn	-kelt
8ee-	im
=11	=11
4ccn	Na-
8bn	-chen
8ccn	ent-
4.a-	-lang
8f	dem
=12	=12
4.b-	blau-
8ccn	-en
2b-}	See.}
=13	=13
2r	.
{2e-	{Tief
=14	=14
4e-	in
4e-	sich
4.e-	selbst
8e-	ver-
=15	=15
2e-	-sun-
4e-	ken
4e-	die
=16	=16
4.f-	Tan-
8f-	-ne
4a-	steht
4f-	und
=17	=17
2g-}	sinnt,}
4r	.
8r	.
{8g-	{der
=18	=18
4b-	Kna-
4g-	-be
8r	.
4dd-	kos't
8g-	der
=19	=19
8dd-	Wel-
8cc-	-le,
8r	.
8cc-	die
12b-	scha2u-
12an	-mend
12b-	vor-
8cc-	-u2-
8a-	-ber-
=20	=20
4g-}	-rinnt.}
4r	.
4r	.
8r	.
{8dd-	{"Du
=21	=21
8.dd-	Tan-
16b-	-nen-
8b-	-baum
8g-	dort
8ee-	o-
8dd-	-ben,
8r	.
8dd-	du
=22	=22
4cc-	al-
4cc-	-ter
4cc-	fin-
8b-	-strer
8a-	Ge-
=23	=23
4dd-}	-sell,}
4r	.
4r	.
{4dd-	{was
=24	=24
4.dd-	schaust
8dd-	du
4dd-	stets
4dd-	so
=25	=25
4dd-	tru2-
8cc-	-be
8cc-	auf
8b-	mich
8a-	zu
8g-	die-
8a-	-ser
=26	=26
4b-}	Stell'?"}
4r	.
4r	.
{4B-	{Da
=27	=27
4.e-	ru2h-
8e-	-ret
4e-	er
4e-	mit
=28	=28
2e-	Trau-
4g-	-ern
8r	.
8g-	der
=29	=29
4.g-	dunk-
8g-	-len
4b-	Zwei-
4g-	-ge
=30	=30
2e-}	Saum,}
4r	.
{4e-	{und
=31	=31
4.f-	spricht
8f-	in
4f-	lei-
4f-	-sen
=32	=32
2f-	Schau-
4f-	-ern,
8r	.
8f-	der
=33	=33
4.e-	al-
8e-	-te
4e-	Tan-
4e-	-nen-
=34	=34
2b-}	-baum:}
4r	.
{4B-	{"Dass
=35	=35
2.e-	schon
4e-	die
=36	=36
4.e-	Axt
8e-	mich
4e-	su-
4e-}	-chet}
=37	=37
2r	.
{2e-	{zu
=38	=38
2.e-	dei-
4e-	-nem
=39	=39
4.f-	To-
8f-	-den
2f-}	-schrein,}
=40	=40
2r	.
{2f-	{das
=41	=41
2f-	macht
2a-	mich
=42	=42
2.a-	stets
4f-	so
=43	=43
2e-	tru2-
4e-}	-be,}
4r	.
=44	=44
2r	.
{2g-	{ge
=45	=45
2.b-	-denk'
4b-	ich
=46	=46
2b-	Kna-
4B-	-be
4r	.
=47	=47
1g-}	dein."}
==	==
*-	*-
